!!!OTL: UND MIT DEN HAENDEN KLAPP
!!!ARE: Europa, Mitteleuropa, Deutschland, Mark
!!!SCT: E1026
!!!YEM: Copyright 1995, estate of Helmut Schaffrath.
**kern
*ICvox
*Ivox
*M2/4
*k[b-]
*F:
{8cc
=1
8bn
8cc
8dd
8cc
=2
8g
8g
8g}
{8cc
=3
8bn
8cc
8dd
8cc
=4
8a
8a
8a}
{8ee
=5
8ff
8ff
8ff
8ee
=6
8dd
8dd
8dd}
{8cc
=7
8b-
8c
8a
8g
=8
8f
8f
8f}
{8cc
=9
8bn
8cc
8dd
8cc
=10
8g
8g
8g}
{8cc
=11
8bn
8cc
8dd
8cc
=12
8a
8a
8a}
{8ee
=13
8ff
8ff
8ff
8ee
=14
8dd
8dd
8dd}
{8cc
=15
8b-
8c
8a
8g
=16
8f
8f
8f}
{8c
=17
8f
8c
8f
8g
=18
16a
16b-
16a
16g
8f}
{8a
=19
8g
8c
8d
8e
=20
8f
8a
8dd
8cc}
=21
{8f
8c
8f
8g
=22
16a
16b-
16a
16g
8f}
{8a
=23
8g
8c
8d
8e
=24
4f
8r}
==
!!!AGN: Tanz - Lied
!!!ONB: ESAC (Essen Associative Code) Database: ERK3
!!!AMT: simple duple
!!!AIN: vox
!!!EED: Helmut Schaffrath
!!!EEV: 1.0
*-
